assets/images/link_elect.svg

<svg width="24" height="24" viewBox="0 0 24 24" fill="none" xmlns="http://www.w3.org/2000/svg"><path d="M0.75 0.75H3.25V13.25H8.25V5.75H13.25V10.75H18.25V15.75H23.25V23.25H0.75V0.75Z" fill="#fff"/></svg>

<svg fill="none" height="24" viewBox="0 0 24 24" width="24" xmlns="http://www.w3.org/2000/svg"><path d="m.75.75h2.5v12.5h5v-7.5h5v5h5v5h5v7.5h-22.5z" fill="#fff"/></svg>
